<?xml version='1.0' encoding='UTF-8'?>
<map version="1.10" tiledversion="1.11.2" orientation="orthogonal" renderorder="right-down" width="8" height="8" tilewidth="64" tileheight="64" infinite="0" nextlayerid="5" nextobjectid="1">
 <properties>
  <property name="character_bottom" value="[[16,0]]" />
  <property name="character_left" value="[[16,3]]" />
  <property name="character_right" value="[[16,2]]" />
  <property name="character_top" value="[[16,1]]" />
 </properties>
 <tileset firstgid="1" source="tiles_sheet.tsx" />
 <layer id="4" name="background" width="8" height="8">
  <data encoding="csv">
77,77,77,77,77,77,77,77,
77,77,77,77,77,77,77,77,
77,77,77,77,77,77,77,77,
77,77,77,77,77,77,77,77,
77,77,77,77,77,77,77,77,
77,77,77,77,77,77,77,77,
77,77,77,77,77,77,77,77,
77,77,77,77,77,77,77,77
</data>
 </layer>
 <layer id="1" name="walls" width="8" height="8">
  <data encoding="csv">
24,24,24,24,24,24,24,24,
41,41,41,41,24,24,24,24,
0,0,0,0,40,41,24,24,
7,7,8,0,0,0,40,24,
24,24,24,7,8,0,0,23,
24,24,24,24,24,8,0,23,
24,24,24,24,24,24,7,24,
24,24,24,24,24,24,24,24
</data>
 </layer>
 <layer id="3" name="objects" width="8" height="8">
  <data encoding="csv">
0,0,0,0,0,0,0,0,
0,0,0,0,0,0,0,0,
102,0,0,0,0,0,0,0,
0,0,0,0,0,0,0,0,
0,0,0,0,0,0,0,0,
0,0,0,0,0,0,85,0,
0,0,0,0,0,0,0,0,
0,0,0,0,0,0,0,0
</data>
 </layer>
</map>