<?xml version="1.0" encoding="UTF-8"?>
<map version="1.10" tiledversion="1.11.2" orientation="orthogonal" renderorder="right-down" width="8" height="10" tilewidth="64" tileheight="64" infinite="0" nextlayerid="5" nextobjectid="1">
 <properties>
  <property name="character_bottom" value="[[16,0]]"/>
  <property name="character_left" value="[[16,3]]"/>
  <property name="character_right" value="[[16,2]]"/>
  <property name="character_top" value="[[16,1]]"/>
 </properties>
 <tileset firstgid="1" source="tiles_sheet.tsx"/>
 <layer id="1" name="backgroud" width="8" height="10">
  <data encoding="csv">
0,0,0,0,0,0,0,0,
0,0,0,0,0,0,0,0,
77,77,77,77,77,77,0,0,
77,77,77,77,77,77,0,0,
77,77,77,77,77,77,0,0,
0,0,0,0,0,0,0,0,
0,0,0,0,0,0,0,0,
0,0,0,0,0,0,0,0,
0,0,0,0,0,0,0,0,
0,0,0,0,0,0,0,0
</data>
 </layer>
 <layer id="2" name="walls" width="8" height="10">
  <data encoding="csv">
24,24,41,41,24,24,24,25,
24,42,42,24,24,41,24,41,
38,58,89,59,87,39,24,25,
43,0,0,0,0,23,24,25,
55,8,7,7,7,56,24,25,
24,24,24,42,24,24,24,42,
42,25,25,42,25,41,42,24,
42,41,25,42,24,24,24,25,
41,41,24,42,41,25,24,24,
41,24,24,24,24,24,24,24
</data>
 </layer>
 <layer id="4" name="foreground" width="8" height="10">
  <data encoding="csv">
74,74,75,76,75,0,0,0,
0,74,0,0,0,0,0,0,
0,0,0,0,0,0,0,0,
0,0,0,0,0,0,0,0,
0,0,0,0,0,0,0,0,
0,0,0,0,0,54,0,0,
0,0,93,93,0,0,0,0,
0,70,75,75,75,0,0,0,
0,0,0,0,0,0,0,0,
0,0,0,0,0,0,0,0
</data>
 </layer>
 <layer id="3" name="objects" width="8" height="10">
  <data encoding="csv">
0,0,0,0,0,0,0,0,
0,0,0,0,0,0,0,0,
0,0,0,0,0,0,0,0,
0,102,0,0,85,0,0,0,
0,0,0,0,0,0,0,0,
0,0,0,0,0,0,0,0,
0,0,0,0,0,0,0,0,
0,0,0,0,0,0,0,0,
0,0,0,0,0,0,0,0,
0,0,0,0,0,0,0,0
</data>
 </layer>
</map>
